dhis-2/dhis-support/dhis-support-system/src/main/resources/SVGs/pregnant_3638w_positive.svg

<svg width="48" height="48" viewBox="0 0 48 48" fill="none" xmlns="http://www.w3.org/2000/svg">
<path fill-rule="evenodd" clip-rule="evenodd" d="M23.9997 4.00977C16.1168 4.00947 9.72593 10.3999 9.72693 18.2826C9.72623 26.1655 16.1168 32.5564 23.9997 32.5564C31.8827 32.5564 38.2736 26.1655 38.2726 18.2826C38.2736 10.3997 31.8827 4.00877 23.9997 4.00977ZM23.9997 5.96874C30.8007 5.96914 36.3136 11.4819 36.3136 18.2826C36.3136 25.0835 30.8007 30.5964 23.9997 30.5974C17.1988 30.5964 11.6859 25.0835 11.6859 18.2826C11.6859 11.4817 17.1988 5.96874 23.9997 5.96874ZM22.9118 6.66983C22.7258 6.67113 22.5338 6.77423 22.4468 7.02333C22.1308 7.72532 21.5868 8.21901 21.3478 9.2128C21.0438 10.6449 23.5008 10.7669 24.2677 10.7639C26.4807 10.8449 27.2777 12.2229 25.0037 12.4279C23.1168 12.6049 21.1758 12.6519 20.7948 16.5348C20.7458 17.1028 21.0078 18.1108 21.4648 19.3928C21.6158 20.2328 21.3658 21.2008 20.8628 22.2497C20.6068 22.2197 20.4178 22.1277 20.3708 21.9157C20.4148 21.0108 20.5978 20.2458 20.2378 18.9358C19.8838 17.6648 19.0178 17.0598 18.1388 16.9038C16.3758 16.5378 14.8119 16.2068 13.3999 16.6758C11.9119 17.2338 12.3879 19.4388 13.6679 19.4668L15.2359 19.5098C16.3228 19.5318 16.9118 20.0098 16.3478 21.5367L15.5819 23.7577C14.9559 25.6687 17.0628 27.7587 19.8238 27.9997C22.6158 27.9347 24.2287 26.6877 26.4037 26.0077C28.4887 24.8537 28.1027 24.0347 28.0957 23.3007C27.7487 22.2827 27.7017 21.9127 26.9467 20.7598C26.6517 20.4478 26.5147 20.3608 26.1247 20.1018C25.1757 19.0508 26.7137 18.3838 27.8727 17.0098C28.4747 16.1558 27.4547 15.1538 26.2707 15.5018C25.2717 15.8278 24.7477 16.4368 23.7298 17.4898C23.1498 18.1288 22.3648 19.6228 23.4408 20.8828C23.7418 21.4617 23.3358 21.7367 22.3088 22.0657C21.9718 22.1497 21.7298 22.1667 21.4648 22.2007C21.9988 21.3107 22.1308 20.4018 22.0118 19.4818C21.7838 18.5148 21.3878 17.5888 21.3708 16.5678C21.6978 12.6589 24.0447 13.1969 25.9017 12.8959C26.7837 12.8659 28.6767 10.7699 24.6187 10.0329C23.3458 9.80479 22.0878 9.89859 22.3028 9.0604C22.4858 8.33061 22.9808 7.87322 23.3008 7.30852C23.5178 6.94903 23.2218 6.66773 22.9118 6.66983ZM31.8297 16.5898V16.5918C30.9297 16.5918 30.0317 16.9358 29.3457 17.6228C27.9737 18.9958 27.9717 21.2258 29.3457 22.5977C30.7187 23.9697 32.9476 23.9647 34.3196 22.5897C35.6916 21.2158 35.6876 18.9868 34.3136 17.6148C33.6276 16.9288 32.7296 16.5888 31.8297 16.5898ZM4 33.9996V43.9995H43.9995V33.9996H4ZM7.72655 35.0956C8.53024 35.0956 9.15934 35.2896 9.61513 35.6756C10.0709 36.0586 10.2989 36.5866 10.2989 37.2616C10.2989 37.6095 10.1929 37.9295 9.98043 38.2225C9.76813 38.5145 9.49093 38.7375 9.14644 38.8945C9.57443 39.0475 9.89273 39.2775 10.1019 39.5835C10.3139 39.8895 10.4199 40.2515 10.4199 40.6695C10.4199 41.3445 10.1719 41.8855 9.67763 42.2925C9.18703 42.6995 8.53724 42.9035 7.72655 42.9035C6.96796 42.9035 6.34687 42.7025 5.86328 42.3025C5.38308 41.9025 5.14259 41.3735 5.14259 40.7165H6.65037C6.65037 41.0015 6.75647 41.2345 6.96876 41.4155C7.18446 41.5965 7.45046 41.6875 7.76365 41.6875C8.12205 41.6875 8.40165 41.5935 8.60344 41.4055C8.80874 41.2145 8.91014 40.9615 8.91014 40.6475C8.91014 39.8895 8.49324 39.5115 7.65815 39.5115H6.85936V38.3315H7.66405C8.04675 38.3315 8.32925 38.2355 8.51364 38.0445C8.69804 37.8535 8.79094 37.5995 8.79094 37.2826C8.79094 36.9766 8.69804 36.7386 8.51364 36.5676C8.33265 36.3976 8.08375 36.3116 7.76365 36.3116C7.47486 36.3116 7.23196 36.3926 7.03706 36.5526C6.84226 36.7086 6.74407 36.9136 6.74407 37.1676H5.23628C5.23628 36.7706 5.34238 36.4166 5.55468 36.1036C5.77038 35.7866 6.07037 35.5386 6.45307 35.3606C6.83936 35.1836 7.26376 35.0956 7.72655 35.0956ZM24.1553 35.0956C24.9593 35.0956 25.5903 35.2896 26.0463 35.6756C26.5023 36.0586 26.7293 36.5866 26.7293 37.2616C26.7293 37.6095 26.6233 37.9295 26.4113 38.2225C26.1993 38.5145 25.9203 38.7375 25.5753 38.8945C26.0033 39.0475 26.3213 39.2775 26.5303 39.5835C26.7433 39.8895 26.8493 40.2515 26.8493 40.6695C26.8493 41.3445 26.6023 41.8855 26.1083 42.2925C25.6183 42.6995 24.9663 42.9035 24.1553 42.9035C23.3974 42.9035 22.7764 42.7025 22.2924 42.3025C21.8124 41.9025 21.5714 41.3735 21.5714 40.7165H23.0814C23.0814 41.0015 23.1874 41.2345 23.3994 41.4155C23.6154 41.5965 23.8794 41.6875 24.1923 41.6875C24.5513 41.6875 24.8303 41.5935 25.0323 41.4055C25.2373 41.2145 25.3413 40.9615 25.3413 40.6475C25.3413 39.8895 24.9223 39.5115 24.0873 39.5115H23.2904V38.3315H24.0933C24.4753 38.3315 24.7603 38.2355 24.9443 38.0445C25.1293 37.8535 25.2203 37.5995 25.2203 37.2826C25.2203 36.9766 25.1293 36.7386 24.9443 36.5676C24.7633 36.3976 24.5123 36.3116 24.1923 36.3116C23.9044 36.3116 23.6614 36.3926 23.4664 36.5526C23.2714 36.7086 23.1754 36.9136 23.1754 37.1676H21.6654C21.6654 36.7706 21.7714 36.4166 21.9834 36.1036C22.1994 35.7866 22.4994 35.5386 22.8824 35.3606C23.2684 35.1836 23.6924 35.0956 24.1553 35.0956ZM30.4403 35.0956C31.1783 35.0956 31.7613 35.2866 32.1922 35.6696C32.6272 36.0486 32.8472 36.5666 32.8472 37.2206C32.8472 37.5895 32.7542 37.9155 32.5692 38.2005C32.3852 38.4855 32.1312 38.7135 31.8083 38.8845C32.1762 39.0615 32.4692 39.3075 32.6852 39.6205C32.9002 39.9305 33.0072 40.2955 33.0072 40.7165C33.0072 41.3915 32.7792 41.9245 32.3192 42.3175C31.8602 42.7075 31.2343 42.9035 30.4443 42.9035C29.6543 42.9035 29.0283 42.7075 28.5653 42.3135C28.1033 41.9205 27.8723 41.3875 27.8723 40.7165C27.8723 40.2955 27.9813 39.9275 28.1963 39.6145C28.4123 39.3015 28.7023 39.0585 29.0673 38.8845C28.7443 38.7135 28.4903 38.4855 28.3063 38.2005C28.1253 37.9155 28.0343 37.5895 28.0343 37.2206C28.0343 36.5736 28.2493 36.0586 28.6813 35.6756C29.1123 35.2896 29.6993 35.0956 30.4403 35.0956ZM15.3045 35.1206H15.5545V36.3626H15.4075C14.7255 36.3736 14.1765 36.5516 13.7595 36.8956C13.3455 37.2406 13.0965 37.7195 13.0135 38.3315C13.4165 37.9205 13.9265 37.7145 14.5425 37.7145C15.2035 37.7145 15.7285 37.9525 16.1184 38.4255C16.5084 38.8985 16.7024 39.5215 16.7024 40.2945C16.7024 40.7885 16.5944 41.2345 16.3784 41.6345C16.1664 42.0345 15.8635 42.3475 15.4705 42.5695C15.0805 42.7925 14.6405 42.9035 14.1455 42.9035C13.3455 42.9035 12.6985 42.6245 12.2045 42.0675C11.7135 41.5115 11.4685 40.7685 11.4685 39.8395V39.2965C11.4685 38.4715 11.6235 37.7445 11.9335 37.1146C12.2465 36.4816 12.6915 35.9926 13.2725 35.6476C13.8575 35.2996 14.5355 35.1246 15.3045 35.1206ZM33.6962 35.1986H35.2572L36.2862 40.5975L37.5382 35.1986H38.8642L40.1101 40.6065L41.1341 35.1986H42.6941L41.0091 42.7985H39.4332L38.1962 37.7145L36.9582 42.7985H35.3822L33.6962 35.1986ZM30.4403 36.3116C30.1593 36.3116 29.9393 36.3976 29.7823 36.5716C29.6263 36.7456 29.5483 36.9866 29.5483 37.2925C29.5483 37.5955 29.6263 37.8385 29.7823 38.0225C29.9393 38.2075 30.1593 38.3005 30.4443 38.3005C30.7303 38.3005 30.9493 38.2075 31.1033 38.0225C31.2593 37.8385 31.3373 37.5955 31.3373 37.2925C31.3373 36.9966 31.2593 36.7606 31.1033 36.5836C30.9463 36.4026 30.7263 36.3116 30.4403 36.3116ZM14.0835 38.9255C13.8395 38.9255 13.6175 38.9895 13.4195 39.1185C13.2215 39.2435 13.0755 39.4115 12.9815 39.6205V40.0795C12.9815 40.5845 13.0805 40.9795 13.2785 41.2655C13.4775 41.5465 13.7565 41.6875 14.1145 41.6875C14.4385 41.6875 14.6995 41.5605 14.8975 41.3065C15.0995 41.0485 15.2005 40.7175 15.2005 40.3105C15.2005 39.8955 15.0995 39.5625 14.8975 39.3085C14.6965 39.0545 14.4245 38.9255 14.0835 38.9255ZM17.6574 38.9375H20.5974V40.1515H17.6574V38.9375ZM30.4353 39.5155C30.1143 39.5155 29.8583 39.6155 29.6673 39.8135C29.4763 40.0085 29.3803 40.2725 29.3803 40.6065C29.3803 40.9305 29.4733 41.1915 29.6613 41.3905C29.8493 41.5885 30.1103 41.6875 30.4443 41.6875C30.7713 41.6875 31.0273 41.5915 31.2123 41.3995C31.4003 41.2085 31.4933 40.9445 31.4933 40.6065C31.4933 40.2765 31.3973 40.0125 31.2063 39.8135C31.0153 39.6155 30.7583 39.5155 30.4353 39.5155Z" fill="#333333"/>
</svg>

<?xml version="1.0" encoding="UTF-8" standalone="no"?>
<!-- Created with Inkscape (http://www.inkscape.org/) -->
<svg id="svg8" xmlns:rdf="http://www.w3.org/1999/02/22-rdf-syntax-ns#" xmlns="http://www.w3.org/2000/svg" xmlns:osb="http://www.openswatchbook.org/uri/2009/osb" height="48" width="48" version="1.1" xmlns:cc="http://creativecommons.org/ns#" viewBox="0 0 12.7 12.7" xmlns:dc="http://purl.org/dc/elements/1.1/">
 <title id="title4753">UIO-icon</title>
 <metadata id="metadata5">
  <rdf:RDF>
   <cc:Work rdf:about="">
    <dc:format>image/svg+xml</dc:format>
    <dc:type rdf:resource="http://purl.org/dc/dcmitype/StillImage"/>
    <dc:title>UIO-icon</dc:title>
    <dc:creator>
     <cc:Agent>
      <dc:title>Joaquín Urbano</dc:title>
     </cc:Agent>
    </dc:creator>
    <dc:rights>
     <cc:Agent>
      <dc:title>GPL</dc:title>
     </cc:Agent>
    </dc:rights>
   </cc:Work>
  </rdf:RDF>
 </metadata>
 <g id="layer1" transform="translate(0,-284.3)">
  <path id="circle5040" d="m24 4.0098c-7.883-0.0003-14.274 6.3902-14.273 14.273-0.0007 7.883 6.39 14.274 14.273 14.274s14.274-6.391 14.273-14.274c0.001-7.883-6.39-14.274-14.273-14.273zm0 1.959c6.801 0.0004 12.314 5.5132 12.314 12.314 0 6.801-5.513 12.314-12.314 12.315-6.801-0.001-12.314-5.514-12.314-12.315s5.513-12.314 12.314-12.314zm-1.088 0.7011c-0.186 0.0013-0.378 0.1044-0.465 0.3535-0.316 0.702-0.86 1.1957-1.099 2.1895-0.304 1.4321 2.153 1.5541 2.92 1.5511 2.213 0.081 3.01 1.459 0.736 1.664-1.887 0.177-3.828 0.224-4.209 4.107-0.049 0.568 0.213 1.576 0.67 2.858 0.151 0.84-0.099 1.808-0.602 2.857-0.256-0.03-0.445-0.122-0.492-0.334 0.044-0.905 0.227-1.67-0.133-2.98-0.354-1.271-1.22-1.876-2.099-2.032-1.763-0.366-3.327-0.697-4.739-0.228-1.488 0.558-1.012 2.763 0.268 2.791l1.568 0.043c1.087 0.022 1.676 0.5 1.112 2.027l-0.766 2.221c-0.626 1.911 1.481 4.001 4.242 4.242 2.792-0.065 4.405-1.312 6.58-1.992 2.085-1.154 1.699-1.973 1.692-2.707-0.347-1.018-0.394-1.388-1.149-2.541-0.295-0.312-0.432-0.399-0.822-0.658-0.949-1.051 0.589-1.718 1.748-3.092 0.602-0.854-0.418-1.856-1.602-1.508-0.999 0.326-1.523 0.935-2.541 1.988-0.58 0.639-1.365 2.133-0.289 3.393 0.301 0.579-0.105 0.854-1.132 1.183-0.337 0.084-0.579 0.101-0.844 0.135 0.534-0.89 0.666-1.799 0.547-2.719-0.228-0.967-0.624-1.893-0.641-2.914 0.327-3.909 2.674-3.371 4.531-3.672 0.882-0.03 2.775-2.126-1.283-2.863-1.273-0.2281-2.531-0.1343-2.316-0.9725 0.183-0.7298 0.678-1.1872 0.998-1.7519 0.217-0.3595-0.079-0.6408-0.389-0.6387zm8.918 9.9201v0.002c-0.9 0-1.798 0.344-2.484 1.031-1.372 1.373-1.374 3.603 0 4.975 1.373 1.372 3.602 1.367 4.974-0.008 1.372-1.374 1.368-3.603-0.006-4.975-0.686-0.686-1.584-1.026-2.484-1.025zm-27.83 17.41v10h40v-10h-40zm3.7266 1.096c0.8037 0 1.4328 0.194 1.8886 0.58 0.4558 0.383 0.6838 0.911 0.6838 1.586 0 0.348-0.106 0.668-0.3185 0.961-0.2123 0.292-0.4895 0.515-0.834 0.672 0.428 0.153 0.7463 0.383 0.9555 0.689 0.212 0.306 0.318 0.668 0.318 1.086 0 0.675-0.248 1.216-0.7423 1.623-0.4906 0.407-1.1404 0.611-1.9511 0.611-0.7586 0-1.3797-0.201-1.8633-0.601-0.4802-0.4-0.7207-0.929-0.7207-1.586h1.5078c0 0.285 0.1061 0.518 0.3184 0.699 0.2157 0.181 0.4817 0.272 0.7949 0.272 0.3584 0 0.638-0.094 0.8398-0.282 0.2053-0.191 0.3067-0.444 0.3067-0.758 0-0.758-0.4169-1.136-1.252-1.136h-0.7988v-1.18h0.8047c0.3827 0 0.6652-0.096 0.8496-0.287s0.2773-0.445 0.2773-0.762c0-0.306-0.0929-0.544-0.2773-0.715-0.181-0.17-0.4299-0.256-0.75-0.256-0.2888 0-0.5317 0.081-0.7266 0.241-0.1948 0.156-0.293 0.361-0.293 0.615h-1.5078c0-0.397 0.1061-0.751 0.3184-1.064 0.2157-0.317 0.5157-0.565 0.8984-0.743 0.3863-0.177 0.8107-0.265 1.2735-0.265zm16.429 0c0.804 0 1.435 0.194 1.891 0.58 0.456 0.383 0.683 0.911 0.683 1.586 0 0.348-0.106 0.668-0.318 0.961-0.212 0.292-0.491 0.515-0.836 0.672 0.428 0.153 0.746 0.383 0.955 0.689 0.213 0.306 0.319 0.668 0.319 1.086 0 0.675-0.247 1.216-0.741 1.623-0.49 0.407-1.142 0.611-1.953 0.611-0.758 0-1.379-0.201-1.863-0.601-0.48-0.4-0.721-0.929-0.721-1.586h1.51c0 0.285 0.106 0.518 0.318 0.699 0.216 0.181 0.48 0.272 0.793 0.272 0.359 0 0.638-0.094 0.84-0.282 0.205-0.191 0.309-0.444 0.309-0.758 0-0.758-0.419-1.136-1.254-1.136h-0.797v-1.18h0.803c0.382 0 0.667-0.096 0.851-0.287 0.185-0.191 0.276-0.445 0.276-0.762 0-0.306-0.091-0.544-0.276-0.715-0.181-0.17-0.432-0.256-0.752-0.256-0.288 0-0.531 0.081-0.726 0.241-0.195 0.156-0.291 0.361-0.291 0.615h-1.51c0-0.397 0.106-0.751 0.318-1.064 0.216-0.317 0.516-0.565 0.899-0.743 0.386-0.177 0.81-0.265 1.273-0.265zm6.285 0c0.738 0 1.321 0.191 1.752 0.574 0.435 0.379 0.655 0.897 0.655 1.551 0 0.369-0.093 0.695-0.278 0.98-0.184 0.285-0.438 0.513-0.761 0.684 0.368 0.177 0.661 0.423 0.877 0.736 0.215 0.31 0.322 0.675 0.322 1.096 0 0.675-0.228 1.208-0.688 1.601-0.459 0.39-1.085 0.586-1.875 0.586s-1.416-0.196-1.879-0.59c-0.462-0.393-0.693-0.926-0.693-1.597 0-0.421 0.109-0.789 0.324-1.102 0.216-0.313 0.506-0.556 0.871-0.73-0.323-0.171-0.577-0.399-0.761-0.684-0.181-0.285-0.272-0.611-0.272-0.98 0-0.647 0.215-1.162 0.647-1.545 0.431-0.386 1.018-0.58 1.759-0.58zm-15.136 0.025h0.25v1.242h-0.147c-0.682 0.011-1.231 0.189-1.648 0.533-0.414 0.345-0.663 0.824-0.746 1.436 0.403-0.411 0.913-0.617 1.529-0.617 0.661 0 1.186 0.238 1.576 0.711s0.584 1.096 0.584 1.869c0 0.494-0.108 0.94-0.324 1.34-0.212 0.4-0.515 0.713-0.908 0.935-0.39 0.223-0.83 0.334-1.325 0.334-0.8 0-1.447-0.279-1.941-0.836-0.491-0.556-0.736-1.299-0.736-2.228v-0.543c0-0.825 0.155-1.552 0.465-2.182 0.313-0.633 0.758-1.122 1.339-1.467 0.585-0.348 1.263-0.523 2.032-0.527zm18.392 0.078h1.561l1.029 5.399 1.252-5.399h1.326l1.246 5.408 1.024-5.408h1.56l-1.685 7.6h-1.576l-1.237-5.084-1.238 5.084h-1.576l-1.686-7.6zm-3.256 1.113c-0.281 0-0.501 0.086-0.658 0.26-0.156 0.174-0.234 0.415-0.234 0.721 0 0.303 0.078 0.546 0.234 0.73 0.157 0.185 0.377 0.278 0.662 0.278 0.286 0 0.505-0.093 0.659-0.278 0.156-0.184 0.234-0.427 0.234-0.73 0-0.296-0.078-0.532-0.234-0.709-0.157-0.181-0.377-0.272-0.663-0.272zm-16.357 2.614c-0.244 0-0.466 0.064-0.664 0.193-0.198 0.125-0.344 0.293-0.438 0.502v0.459c0 0.505 0.099 0.9 0.297 1.186 0.199 0.281 0.478 0.422 0.836 0.422 0.324 0 0.585-0.127 0.783-0.381 0.202-0.258 0.303-0.589 0.303-0.996 0-0.415-0.101-0.748-0.303-1.002-0.201-0.254-0.473-0.383-0.814-0.383zm3.574 0.012h2.94v1.214h-2.94v-1.214zm12.778 0.578c-0.321 0-0.577 0.1-0.768 0.298-0.191 0.195-0.287 0.459-0.287 0.793 0 0.324 0.093 0.585 0.281 0.784 0.188 0.198 0.449 0.297 0.783 0.297 0.327 0 0.583-0.096 0.768-0.288 0.188-0.191 0.281-0.455 0.281-0.793 0-0.33-0.096-0.594-0.287-0.793-0.191-0.198-0.448-0.298-0.771-0.298z" fill-rule="evenodd" transform="matrix(.26458 0 0 .26458 0 284.3)" fill="#333"/>
 </g>
</svg>
